X: 16
T:Knarligen
M:4/4
L:1/8
C:Andrea Hoag
S:Andrea Hoag and Bruce Sagan
K:G
D EF|G3FE2DD|EDEF GDEF|G3D B,2G,B,|G,2B2ADEF|G3F E2DD|EDEF GDEF|G3DB,2G,
B,|G,2B2A2||
:dc|B3AGFED|EDEF GBdc|B3A GFED|CEB,DA,2dc|B3AGFED|E2G2A3G|FGFE EDEF|G6:|
